X: 19
T: Humours Of Ennistymon, The
Z: UPipes & harp
S: https://thesession.org/tunes/228#setting49210
R: jig
M: 6/8
L: 1/8
K: Gmaj
d/c/|:BGB BGB|AFA AFA|BGB AFA|GBd gdc|
BGB BAG|AFA ABc|ded cAF|1 AGF G2 d/c/:|2 AGF ~G2 B/d/||
|:~f3 fed|cAG FGA|g ~g3 fg|afd d2 e|
fdd edd|cAG FGA|BGB cAF|1 AGF ~G2 B/d/:|2 AGF ~G2 d/c/|

